!!!OTL: Seems Like Old Times
!!!COM: Lombardo, Carmen
!!!COM: Loeb, John Jacob
!!!LAR: Frey, Hugo
!! "Seems Like Old Times" by Carmen Lombardo and John Jacob Loeb,
!! from "Barbershop Memories" compiled and arranged by Hugo Frey
!! copyright 1975 by EMI Music Publ. Ltd.; p. 11; alla breve; in F major
!! NOTE:  The second ending is encoded.
**kern	**kern	**kern	**kern
*Ivox	*Ivox	*Ivox	*Ivox
*M2/2	*M2/2	*M2/2	*M2/2
*F:	*F:	*F:	*F:
4C#	4C#	4C#	4c#
4D	4D	4D	4d
=1	=1	=1	=1
1D	1d	1B-	1f#
=2	=2	=2	=2
1D	1c	1A	1f#
=3	=3	=3	=3
4D	4c	4B-	4f#
4D	4c	4A	4f#
4D	4c	4d	4f#
4D	4c	4B-	4f#
=4	=4	=4	=4
8D	8c	8B-	8f#
4.D	4.c	4.A	4.f#
4C#	4C#	4C#	4c#
4D	4D	4D	4d
=5	=5	=5	=5
1D	1Bn	1A	1fn
=6	=6	=6	=6
1D	1Bn	1G	1f
=7	=7	=7	=7
4D	4Bn	4A	4f
4D	4B	4G	4f
4GG	4B	4d	4f
4GG	4B	4A	4f
=8	=8	=8	=8
8D	8Bn	8A	8f
4.D	4.B	4.G	4.f
4C#	4C#	4C#	4c#
4D	4D	4D	4d
=9	=9	=9	=9
2.GG	2.B-	2.F	2.d
4GG	4F	4D	4B-
=10	=10	=10	=10
2.C	2.E	2.A	2.c
8C	8A	8F#	8d#
8C	8B-	8G	8e
=11	=11	=11	=11
4F	4A	4d	4f
4F	4A	4d	4f
4E-	4A	4d	4f
4E-	4A	4c	4f
=12	=12	=12	=12
4D	4d	4B-	4f#
2.D	2.c	2.A	2.f#
=13	=13	=13	=13
2.D	2.Bn	2.A	2.fn
4D	4B	4G	4f
=14	=14	=14	=14
2.GG	2.Bn	2.F	2.d
8GG	8B	8F	8d
8GG	8B	8G	8d
=15	=15	=15	=15
4GG	4B-	4F	4d
4C	4B-	4E	4c
4C	4B-	4G	4e
4G	4B-	4E	4c
=16	=16	=16	=16
4G	4B-	4D	4f
4G	4B-	4C	4e
4C#	4C#	4C#	4c#
4D	4D	4D	4d
=17	=17	=17	=17
1D	1d	1B-	1f#
=18	=18	=18	=18
1D	1c	1A	1f#
=19	=19	=19	=19
4D	4c	4B-	4f#
4D	4c	4A	4f#
4D	4c	4d	4f#
4D	4c	4B-	4f#
=20	=20	=20	=20
8D	8c	8B-	8f#
4.D	4.c	4.A	4.f#
4C#	4C#	4C#	4c#
4D	4D	4D	4d
=21	=21	=21	=21
1D	1Bn	1A	1fn
=22	=22	=22	=22
1D	1Bn	1G	1f
=23	=23	=23	=23
4D	4Bn	4A	4f
4D	4B	4G	4f
4GG	4B	4d	4f
4GG	4B	4A	4f
=24	=24	=24	=24
[8D	[8Bn	{8A	[8f
4.D]	4.B]	4.G}	4.f]
4C#	4C#	4C#	4c#
4D	4D	4D	4d
=25	=25	=25	=25
2.GG	2.B-	2.F	2.d
4GG	4F	4D	4B-
=26	=26	=26	=26
2.C	2.E	2.A	2.c
8C	8A	8F#	8d#
8C	8B-	8G	8e
=27	=27	=27	=27
4F	4A	4d	4f
4F	4A	4d	4f
4E-	4A	4d	4f
4E-	4A	4c	4f
=28	=28	=28	=28
2D	2d	2B-	2f#
4D	4c	4A	4f#
4D	4c	4d	4f#
=29	=29	=29	=29
2D	2Bn	2A	2fn
[2GG	[2B	[2A	[2f
=30	=30	=30	=30
4GG]	4B]	4A]	4f]
8D	8Bn	8A	8f
8D	8B	8F	8f
4C	4c	4A	4e
4C	4E	4A	4c
=31	=31	=31	=31
{1FF	{2C	[1A	[1f
.	8D	.	.
.	8F	.	.
.	4A	.	.
=32	=32	=32	=32
1F}	1c}	1A]	1f]
==	==	==	==
*-	*-	*-	*-
